public/gallery-off.svg

<?xml version="1.0" encoding="UTF-8" standalone="no"?>
<!DOCTYPE svg PUBLIC "-//W3C//DTD SVG 1.1//EN" "http://www.w3.org/Graphics/SVG/1.1/DTD/svg11.dtd">
<!-- Created with Vectornator (http://vectornator.io/) -->
<svg height="100%" stroke-miterlimit="10" style="fill-rule:nonzero;clip-rule:evenodd;stroke-linecap:round;stroke-linejoin:round;" version="1.1" viewBox="0 0 1024 1024" width="100%" xml:space="preserve" xmlns="http://www.w3.org/2000/svg" xmlns:vectornator="http://vectornator.io" xmlns:xlink="http://www.w3.org/1999/xlink">
<defs/>
<g id="Layer-1" vectornator:layerName="Layer 1">
<g opacity="1" vectornator:layerName="Group 1">
<path d="M125.272 0C56.0864 0 0 56.0864 0 125.272L0 369.554C0 438.74 56.0864 494.826 125.272 494.826L369.554 494.826C438.74 494.826 494.826 438.74 494.826 369.554L494.826 125.272C494.826 56.0864 438.74 0 369.554 0L125.272 0ZM151.208 52.5557L343.618 52.5557C398.11 52.5557 442.27 96.7164 442.27 151.208L442.27 343.618C442.27 398.11 398.11 442.27 343.618 442.27L151.208 442.27C96.7164 442.27 52.5557 398.11 52.5557 343.618L52.5557 151.208C52.5557 96.7164 96.7164 52.5557 151.208 52.5557Z" fill="#fff7ed" fill-rule="nonzero" opacity="1" stroke="none" vectornator:layerName="Curve 3"/>
<path d="M654.446 0C585.26 0 529.174 56.0864 529.174 125.272L529.174 369.554C529.174 438.74 585.26 494.826 654.446 494.826L898.728 494.826C967.914 494.826 1024 438.74 1024 369.554L1024 125.272C1024 56.0864 967.914 0 898.728 0L654.446 0ZM680.382 52.5557L872.792 52.5557C927.284 52.5557 971.444 96.7164 971.444 151.208L971.444 343.618C971.444 398.11 927.284 442.27 872.792 442.27L680.382 442.27C625.89 442.27 581.73 398.11 581.73 343.618L581.73 151.208C581.73 96.7164 625.89 52.5557 680.382 52.5557Z" fill="#fff7ed" fill-rule="nonzero" opacity="1" stroke="none" vectornator:layerName="Curve 4"/>
<path d="M125.272 529.174C56.0864 529.174 3.28461e-14 585.26 3.28461e-14 654.446L3.28461e-14 898.728C3.28461e-14 967.914 56.0864 1024 125.272 1024L369.554 1024C438.74 1024 494.826 967.914 494.826 898.728L494.826 654.446C494.826 585.26 438.74 529.174 369.554 529.174L125.272 529.174ZM151.208 581.73L343.618 581.73C398.11 581.73 442.27 625.89 442.27 680.382L442.27 872.792C442.27 927.284 398.11 971.444 343.618 971.444L151.208 971.444C96.7164 971.444 52.5557 927.284 52.5557 872.792L52.5557 680.382C52.5557 625.89 96.7164 581.73 151.208 581.73Z" fill="#fff7ed" fill-rule="nonzero" opacity="1" stroke="none" vectornator:layerName="Curve 5"/>
<path d="M654.446 529.174C585.26 529.174 529.174 585.26 529.174 654.446L529.174 898.728C529.174 967.914 585.26 1024 654.446 1024L898.728 1024C967.914 1024 1024 967.914 1024 898.728L1024 654.446C1024 585.26 967.914 529.174 898.728 529.174L654.446 529.174ZM680.382 581.73L872.792 581.73C927.284 581.73 971.444 625.89 971.444 680.382L971.444 872.792C971.444 927.284 927.284 971.444 872.792 971.444L680.382 971.444C625.89 971.444 581.73 927.284 581.73 872.792L581.73 680.382C581.73 625.89 625.89 581.73 680.382 581.73Z" fill="#fff7ed" fill-rule="nonzero" opacity="1" stroke="none" vectornator:layerName="Curve 6"/>
</g>
</g>
</svg>

<svg xmlns="http://www.w3.org/2000/svg" xmlns:vectornator="http://vectornator.io" xml:space="preserve" stroke-miterlimit="10" style="fill-rule:nonzero;clip-rule:evenodd;stroke-linecap:round;stroke-linejoin:round" viewBox="0 0 1024 1024"><g vectornator:layerName="Layer 1"><g vectornator:layerName="Group 1" fill="#fff7ed"><path vectornator:layerName="Curve 3" d="M125.272 0C56.086 0 0 56.086 0 125.272v244.282c0 69.186 56.086 125.272 125.272 125.272h244.282c69.186 0 125.272-56.086 125.272-125.272V125.272C494.826 56.086 438.74 0 369.554 0H125.272Zm25.936 52.556h192.41c54.492 0 98.652 44.16 98.652 98.652v192.41c0 54.492-44.16 98.652-98.652 98.652h-192.41c-54.492 0-98.652-44.16-98.652-98.652v-192.41c0-54.492 44.16-98.652 98.652-98.652Z"/><path vectornator:layerName="Curve 4" d="M654.446 0C585.26 0 529.174 56.086 529.174 125.272v244.282c0 69.186 56.086 125.272 125.272 125.272h244.282c69.186 0 125.272-56.086 125.272-125.272V125.272C1024 56.086 967.914 0 898.728 0H654.446Zm25.936 52.556h192.41c54.492 0 98.652 44.16 98.652 98.652v192.41c0 54.492-44.16 98.652-98.652 98.652h-192.41c-54.492 0-98.652-44.16-98.652-98.652v-192.41c0-54.492 44.16-98.652 98.652-98.652Z"/><path vectornator:layerName="Curve 5" d="M125.272 529.174C56.086 529.174 0 585.26 0 654.446v244.282C0 967.914 56.086 1024 125.272 1024h244.282c69.186 0 125.272-56.086 125.272-125.272V654.446c0-69.186-56.086-125.272-125.272-125.272H125.272Zm25.936 52.556h192.41c54.492 0 98.652 44.16 98.652 98.652v192.41c0 54.492-44.16 98.652-98.652 98.652h-192.41c-54.492 0-98.652-44.16-98.652-98.652v-192.41c0-54.492 44.16-98.652 98.652-98.652Z"/><path vectornator:layerName="Curve 6" d="M654.446 529.174c-69.186 0-125.272 56.086-125.272 125.272v244.282c0 69.186 56.086 125.272 125.272 125.272h244.282C967.914 1024 1024 967.914 1024 898.728V654.446c0-69.186-56.086-125.272-125.272-125.272H654.446Zm25.936 52.556h192.41c54.492 0 98.652 44.16 98.652 98.652v192.41c0 54.492-44.16 98.652-98.652 98.652h-192.41c-54.492 0-98.652-44.16-98.652-98.652v-192.41c0-54.492 44.16-98.652 98.652-98.652Z"/></g></g></svg>
